X:1249
T:Baxaben cuatro Ayeranos (Arrg.)
R:Tonada
C:Tradicional
S:Música Tradicional Asturiana, (C) Tello & Tito. Asturies, 2001.
S:http://pagina.de/MusTradAst <telloytito@asturies.org>
O:Ayer
A:Asturies
G:Arrg.
Z:Tito
M:3/4
L:1/4
Q:3/4=40
K:Dm
A,|
"Dm"D2 E|"Dm"FED|"F"C2-C/4D/4C/4B,/4|"Dm"A,3-|"Dm"A,2F|
"Dm"A2 A|"Gm"BAG|"F"F2-F/4G/4F/4E/4|"Dm"D3-|"Dm"D2 A,|
"Dm"D2 E|"F" FED|"C"C2-C/4D/4C/4B,/4|"Dm"A,3-|"Dm"A,2F|
"F" A2 A|"Gm"BAG|"F"A A>A|"Gm"BAG|"F"A3-|"Dm"A3|
|:"D"D2 ^F|"Dm"AAA|"Gm"BAG|"Dm"A>G^F|
"C"GFE|"Dm"F>ED|"A"ED^C|[1 "Dm"D3-|"Dm"D2 A,:|[2 "Dm"D3-|"Dm"D3||



Xiraldilla, transcrita en Cenera, ayuntamiento de Mieres.
O:Cenera (Mieres)
A:Asturies
Z:Cancioneru de Torner 428
M:3/8
L:1/8
Q:3/8=88
W:Baxaben cuatro ayeranos,
W:todos xuntos de madreñes,
W:y en Santullán pidieron
W:fabes, tocín y morcielles.
W:
W:Que dixo Melchor,
W:que tan vaina yes
W:tú como yo
W:y yo como tú
W:y somos los dos.
K:Cm
G
|c2 c|edc|(B>A) G-|G2 e|g2 g|agf|(e>d) c-|c z G|
c2 c|edc|(B>A) G-|G2 e|g2 g|agf|gg g|
agf|g3|c2 e|ggg|agf|(g>f)e|fed|(e>d)c|dc=B|c3-|c ||



